icons/gamepad.svg

<svg width="24" height="24" viewBox="0 0 24 24" fill="none" xmlns="http://www.w3.org/2000/svg">
<path d="M9 9C9.55229 9 10 9.44772 10 10V11H11C11.5523 11 12 11.4477 12 12C12 12.5523 11.5523 13 11 13H10V14C10 14.5523 9.55229 15 9 15C8.44772 15 8 14.5523 8 14V13H7C6.44772 13 6 12.5523 6 12C6 11.4477 6.44772 11 7 11H8V10C8 9.44772 8.44772 9 9 9Z" fill="black"/>
<path d="M16 10C16 10.5523 15.5523 11 15 11C14.4477 11 14 10.5523 14 10C14 9.44772 14.4477 9 15 9C15.5523 9 16 9.44772 16 10Z" fill="black"/>
<path d="M17 15C17.5523 15 18 14.5523 18 14C18 13.4477 17.5523 13 17 13C16.4477 13 16 13.4477 16 14C16 14.5523 16.4477 15 17 15Z" fill="black"/>
<path fill-rule="evenodd" clip-rule="evenodd" d="M1 14C1 13.9749 1.00093 13.9499 1.00275 13.9253L1 10C1 6.68629 3.68629 4 7 4H17C20.3137 4 23 6.68629 23 10V14C23 17.3137 20.3137 20 17 20H7C3.75544 20 1.11272 17.425 1.0035 14.2066C1.00117 14.138 1 14.0691 1 14ZM3.00291 14.1544L3 10C3.00018 7.79102 4.79097 6 7 6H17C19.2091 6 21 7.79086 21 10V14C21 16.2091 19.2091 18 17 18H7C4.84257 18 3.08373 16.2917 3.00291 14.1544Z" fill="black"/>
</svg>

<svg
  width="24"
  height="24"
  viewBox="0 0 24 24"
  xmlns="http://www.w3.org/2000/svg"
>
  <path d="M9 9a1 1 0 0 1 1 1v1h1a1 1 0 1 1 0 2h-1v1a1 1 0 1 1-2 0v-1H7a1 1 0 1 1 0-2h1v-1a1 1 0 0 1 1-1z" />
  <path d="M16 10a1 1 0 1 1-2 0 1 1 0 0 1 2 0z" />
  <path d="M17 15a1 1 0 1 0 0-2 1 1 0 0 0 0 2z" />
  <path
    fill-rule="evenodd"
    clip-rule="evenodd"
    d="M1 14c0-.025 0-.05.003-.075L1 10a6 6 0 0 1 6-6h10a6 6 0 0 1 6 6v4a6 6 0 0 1-6 6H7a6 6 0 0 1-6-6zm2.003.154L3 10a4 4 0 0 1 4-4h10a4 4 0 0 1 4 4v4a4 4 0 0 1-4 4H7a4 4 0 0 1-3.997-3.846z"
  />
</svg>
